!!!COM: Bach, Johann Sebastian
!!!CDT: 1685/3//-1750/7/28/
!!!OTL@@DE: Nun danket alle Gott
!!!OTL@EN:  From the depths of my heart
!!!AGN: 4-Part Chorale
!!!SCT: BH 032
!!!SCT: BWV 386
**harm	**root	**kern	**kern	**kern	**kern
!	!	!bass	!tenor	!alto	!soprno
*	*Iorgan	*Iorgan	*Iorgan	*Iorgan	*Iorgan
*M4/4	*M4/4	*M4/4	*M4/4	*M4/4	*M4/4
*met(c)	*met(c)	*met(c)	*met(c)	*met(c)	*met(c)
*MM60	*MM60	*MM60	*MM60	*MM60	*MM60
*k[f#c#g#]	*k[f#c#g#]	*k[f#c#g#]	*k[f#c#g#]	*k[f#c#g#]	*k[f#c#g#]
*A:	*A:	*A:	*A:	*A:	*A:
*>[A,A,B]	*>[A,A,B]	*>[A,A,B]	*>[A,A,B]	*>[A,A,B]	*>[A,A,B]
*>A	*>A	*>A	*>A	*>A	*>A
I	4AA	4AA	4c#	4a	4ee
=1	=1	=1	=1	=1	=1
I	4AA	8A	4c#	4a	4ee
.	.	8B	.	.	.
Ib	4AA	8c#	4c#	4a	4ee
.	.	8A	.	.	.
IV	4DD	8D	4d	4a	4ff#
.	.	8E	.	.	.
IVb	4DD	8F#	4d	4a	4ff#
.	.	8D	.	.	.
=2	=2	=2	=2	=2	=2
I;	2AA;	2A;	2c#;	2a;	2ee;
r	4r	4r	4r	4r	4r
vib	4FF#	4A	4f#	4a	4cc#
=3	=3	=3	=3	=3	=3
V7b	4EE	4G#	4e	4b	4dd
I	4AA	4A	4e	4a	4cc#
V7	4EE	8E	4e	4g#	4b
.	.	8D	.	.	.
Ib	4AA	8C#	4e	4a	8.cc#
.	.	8AA	.	.	.
.	.	.	.	.	16dd
=4	=4	=4	=4	=4	=4
V7	2EE	2E	8e	8a	2b
.	.	.	16d	8f#	.
.	.	.	16c#	.	.
.	.	.	4d	4g#	.
I;	4AA;	4AA;	4c#;	4e;	4a;
=:|!	=:|!	=:|!	=:|!	=:|!	=:|!
*>B	*>B	*>B	*>B	*>B	*>B
V	4EE	4E	8B	8g#	4b
.	.	.	8A	8f#	.
=5	=5	=5	=5	=5	=5
V	4EE	8E	8G#	4e	4b
.	.	8F#	8A	.	.
Vb	4EE	8G#	4B	4e	4b
.	.	8E	.	.	.
I	4AA	8AA	8B	4e	4cc#
.	.	8BB	16A	.	.
.	.	.	16G#	.	.
Ib	4AA	8C#	4A	4e	4cc#
.	.	8AA	.	.	.
!!linebreak: 2
=6	=6	=6	=6	=6	=6
V;	2EE;	2EE;	2G#;	2e;	2b;
r	4r	4r	4r	4r	4r
V	4EE	4E	4e	4g#	4b
=7	=7	=7	=7	=7	=7
I	4AA	8A	4e	4a	8cc#
.	.	8B	.	.	8dd#
iii	4CC#	8c#	4e	4g#	4ee
.	.	8G#	.	.	.
vi7b	4FF#	8A	4c#	4f#	4ee
.	.	8F#	.	.	.
V/V	4BB	8B	4B	4f#	4dd#
.	.	8BB	.	.	.
=8	=8	=8	=8	=8	=8
V;	2EE;	2E;	2B;	2g#;	2ee;
r	4r	4r	4r	4r	4r
I	4AA	4AA	4c#	4a	4ee
=9	=9	=9	=9	=9	=9
IV	4DD	8D	4d	8a	4ff#
.	.	8C#	.	8b	.
vii/ii	4AA#	8BB	4c#	4cc#	4ee
.	.	8AA#	.	.	.
ii	4BB	8BB	4f#	8cc#	4dd
.	.	8D	.	4b	.
iiio7b	8CC#	8E	8gn	.	4cc#
V/ii	8FF#	8F#	8f#	8a#	.
=10	=10	=10	=10	=10	=10
ii;	2BB;	2BB;	2f#;	2b;	2dd;
r	4r	4r	4r	4r	4r
Ib	4AA	8C#	4e	4a	4cc#
.	.	8D	.	.	.
=11	=11	=11	=11	=11	=11
V	4EE	4E	4e	4g#	4b
I	8AA	8A	8e	4a	8.cc#
vi	8FF#	8F#	8f#	.	.
.	.	.	.	.	16dd
ii7b	4BB	8D	8f#	4a	4.b
.	.	8BB	8d	.	.
V	4EE	8E	8.B	4g#	.
.	.	8EE	.	.	8a
.	.	.	16e	.	.
=12	=12	=12	=12	=12	=12
I;	2.AA;	2.AA;	2.c#;	2.e;	2.a;
==	==	==	==	==	==
*-	*-	*-	*-	*-	*-
!!chor2scor: -l 2 -s 0.6 -o %b.pmx
!!!YEC: Copyright 1994, David Huron
!!!YEC: Changes/Additions 2001 by Craig Stuart Sapp
!!!YEN: United States of America
!!!SMA: 371 Bach Chorales, edited by Ludwig Erk, C.F. Peters
!!!PDT: 1850, 1865
!!!ONB: Harmony and Root analysis done manually
